Origami/32x32/apps/steamvr.svg

<svg width="32" height="32" version="1" xmlns="http://www.w3.org/2000/svg">
 <rect transform="matrix(0,-1,-1,0,0,0)" x="-27" y="-30" width="20" height="28" rx="5.714" ry="5.6" style="opacity:.2"/>
 <rect transform="matrix(0,-1,-1,0,0,0)" x="-26" y="-30" width="20" height="28" rx="5.714" ry="5.6" style="fill:#4f4f4f"/>
 <path d="m26 19.571425v-5.142857c0-1.899429-1.784-3.428571-4-3.428571h-12c-2.2159996 0-3.9999995 1.529142-3.9999995 3.428571v5.142857c0 1.899429 1.784 3.428572 3.9999995 3.428572h2.5000002l3.5-2 3.5 2h2.5c2.216 0 4-1.529143 4-3.428572z" style="opacity:.2"/>
 <path d="m26 18.571428v-5.142857c0-1.899429-1.784-3.428571-4-3.428571h-12c-2.2159996 0-3.9999995 1.529142-3.9999995 3.428571v5.142857c0 1.899429 1.784 3.428572 3.9999995 3.428572h2.5000002l3.5-2 3.5 2h2.5c2.216 0 4-1.529143 4-3.428572z" style="fill:#48aad5"/>
 <rect transform="rotate(90)" x="14" y="-4" width="5" height="3" rx=".625" ry=".75" style="opacity:.2"/>
 <rect transform="rotate(90)" x="13" y="-4" width="5" height="3" rx=".625" ry=".75" style="fill:#929292"/>
 <rect transform="rotate(90)" x="14" y="-31" width="5" height="3" rx=".625" ry=".75" style="opacity:.2"/>
 <rect transform="rotate(90)" x="13" y="-31" width="5" height="3" rx=".625" ry=".75" style="fill:#929292"/>
 <path d="M 7.5996094 6 C 4.4972094 6 2 8.5491297 2 11.714844 L 2 12.714844 C 2 9.5491297 4.4972094 7 7.5996094 7 L 24.400391 7 C 27.502791 7 30 9.5491297 30 12.714844 L 30 11.714844 C 30 8.5491297 27.502791 6 24.400391 6 L 7.5996094 6 z" style="fill:#ffffff;opacity:.1"/>
</svg>

<svg xmlns="http://www.w3.org/2000/svg" width="32" height="32" version="1">
 <rect style="opacity:0.2" width="20" height="28" x="-27" y="-30" rx="5.714" ry="5.6" transform="matrix(0,-1,-1,0,0,0)"/>
 <rect style="fill:#4f4f4f" width="20" height="28" x="-26" y="-30" rx="5.714" ry="5.6" transform="matrix(0,-1,-1,0,0,0)"/>
 <path style="opacity:0.2" d="m 26,19.571425 v -5.142857 c 0,-1.899429 -1.784,-3.428571 -4,-3.428571 H 9.9999998 c -2.2159996,0 -3.9999995,1.529142 -3.9999995,3.428571 v 5.142857 c 0,1.899429 1.784,3.428572 3.9999995,3.428572 H 12.5 l 3.5,-2 3.5,2 H 22 c 2.216,0 4,-1.529143 4,-3.428572 z"/>
 <path style="fill:#48aad5" d="M 26,18.571428 V 13.428571 C 26,11.529142 24.216,10 22,10 H 9.9999998 c -2.2159996,0 -3.9999995,1.529142 -3.9999995,3.428571 v 5.142857 c 0,1.899429 1.784,3.428572 3.9999995,3.428572 H 12.5 l 3.5,-2 3.5,2 H 22 c 2.216,0 4,-1.529143 4,-3.428572 z"/>
 <rect style="opacity:0.2" width="5" height="3" x="14" y="-4" rx=".625" ry=".75" transform="rotate(90)"/>
 <rect style="fill:#929292" width="5" height="3" x="13" y="-4" rx=".625" ry=".75" transform="rotate(90)"/>
 <rect style="opacity:0.2" width="5" height="3" x="14" y="-31" rx=".625" ry=".75" transform="rotate(90)"/>
 <rect style="fill:#929292" width="5" height="3" x="13" y="-31" rx=".625" ry=".75" transform="rotate(90)"/>
 <path style="fill:#ffffff;opacity:0.1" d="M 7.5996094 6 C 4.4972094 6 2 8.5491297 2 11.714844 L 2 12.714844 C 2 9.5491297 4.4972094 7 7.5996094 7 L 24.400391 7 C 27.502791 7 30 9.5491297 30 12.714844 L 30 11.714844 C 30 8.5491297 27.502791 6 24.400391 6 L 7.5996094 6 z"/>
</svg>
